packages/foundations/assets/icons/functional/images/transportation/pedestrian_32_inverted.svg

<svg width="32" height="32" viewBox="0 0 32 32" fill="none" xmlns="http://www.w3.org/2000/svg">
<g clip-path="url(#clip0_2214_6738)">
<path fill-rule="evenodd" clip-rule="evenodd" d="M16.7386 10.4234C16.4731 12.9999 16.2054 15.5758 15.9355 18.1513L19.5714 21.7948C19.6521 21.8757 19.7579 22.0766 19.7933 22.1851C20.3579 24.3868 20.9204 26.5903 21.4807 28.7956C21.5968 29.2505 21.3222 29.7133 20.8673 29.8294C20.4475 29.9366 19.9952 29.7034 19.8335 29.216C19.2883 27.089 18.745 24.9604 18.2035 22.8303L14.6153 19.2353C14.3642 18.9837 14.183 18.5858 14.228 18.1423C14.4441 16.0343 14.663 13.927 14.8845 11.8203L11.8265 13.4173L11.3484 16.1047C11.2724 16.5314 10.7891 16.8685 10.3625 16.7925C9.93584 16.7165 9.59548 16.2997 9.67473 15.8066C9.8567 14.773 10.0407 13.7404 10.2267 12.7086C10.2663 12.4864 10.4652 12.1995 10.6701 12.1042C12.2795 11.2611 13.8893 10.4204 15.4997 9.5822C16.0669 9.28597 16.7898 9.70901 16.7386 10.4234ZM13.9308 20.9541C14.3266 21.1306 14.5427 21.5809 14.3609 22.0766C13.2809 24.5038 12.1993 26.9289 11.1163 29.352C10.9251 29.7808 10.4225 29.9733 9.99378 29.7821C9.59802 29.6056 9.3622 29.1082 9.56369 28.6596C10.6437 26.2325 11.7253 23.8073 12.8083 21.3842C12.9995 20.9555 13.5021 20.7629 13.9308 20.9541ZM19.0408 12.1995C19.3338 12.5141 19.6247 12.8301 19.9135 13.1473L22.0138 14.2132C23.0628 14.7451 22.2762 16.1688 21.245 15.7294C20.499 15.3535 19.7542 14.9758 19.0108 14.5965C18.9505 14.5659 18.8041 14.4509 18.7701 14.4144C18.442 14.0611 18.1155 13.7068 17.7907 13.3515C17.4725 13.0063 17.4945 12.4685 17.8397 12.1504C18.1562 11.8588 18.6627 11.8316 19.0408 12.1995ZM16.4224 2.14392C17.9927 2.14392 19.2657 3.41695 19.2657 4.98731C19.2657 6.55766 17.9927 7.83069 16.4224 7.83069C14.852 7.83069 13.579 6.55766 13.579 4.98731C13.579 3.41695 14.852 2.14392 16.4224 2.14392ZM16.4224 3.84392C15.7909 3.84392 15.279 4.35583 15.279 4.98731C15.279 5.61878 15.7909 6.13069 16.4224 6.13069C17.0538 6.13069 17.5657 5.61878 17.5657 4.98731C17.5657 4.35583 17.0538 3.84392 16.4224 3.84392Z" fill="#1A1C1F"/>
</g>
<defs>
<clipPath id="clip0_2214_6738">
<rect width="32" height="32" fill="white"/>
</clipPath>
</defs>
</svg>

<svg xmlns="http://www.w3.org/2000/svg" width="32" height="32" fill="none"><g clip-path="url(#a)"><path fill="#1A1C1F" fill-rule="evenodd" d="M16.739 10.423q-.399 3.865-.804 7.728l3.636 3.644c.081.08.187.282.222.39q.847 3.303 1.688 6.61a.85.85 0 0 1-.614 1.034c-.42.108-.872-.126-1.033-.613q-.819-3.19-1.63-6.386l-3.589-3.595a1.37 1.37 0 0 1-.387-1.093q.324-3.162.656-6.322l-3.058 1.597-.478 2.688c-.076.426-.559.764-.985.688a.86.86 0 0 1-.688-.986q.273-1.551.552-3.098c.04-.223.238-.51.443-.605q2.415-1.265 4.83-2.522a.853.853 0 0 1 1.239.841M13.93 20.954c.396.177.612.627.43 1.123q-1.62 3.64-3.245 7.275a.85.85 0 0 1-1.122.43.86.86 0 0 1-.43-1.122q1.62-3.641 3.244-7.276a.85.85 0 0 1 1.123-.43m5.11-8.754q.44.471.872.947l2.1 1.066c1.05.532.263 1.956-.768 1.516q-1.118-.563-2.234-1.132a1.5 1.5 0 0 1-.24-.183q-.493-.53-.98-1.062a.85.85 0 0 1 .049-1.202c.316-.291.823-.318 1.2.05M16.422 2.144a2.843 2.843 0 1 1 0 5.687 2.843 2.843 0 0 1 0-5.687m0 1.7a1.143 1.143 0 1 0 0 2.287 1.143 1.143 0 0 0 0-2.287" clip-rule="evenodd"/></g><defs><clipPath id="a"><path fill="#fff" d="M0 0h32v32H0z"/></clipPath></defs></svg>
